public/avatar/hat/233.svg

<svg xmlns:xlink="http://www.w3.org/1999/xlink" height="92.9" width="100.7" xmlns="http://www.w3.org/2000/svg"><use height="21.45" transform="translate(20.25 40.6)" width="37" xlink:href="#a"/><defs><g id="a" fill-rule="evenodd"><path d="M10.6 5.7q4.6 3.1 4.35 5-.25 1.55-1.6 1.6l-2.8-4.1Q8.85 5.85 3.9 4.3q-4.1-1.15-9.5.5-3.75 1.15-6.25 5.35l-1.5 1.95q-.25-2.55.95-5.1 2.45-5.1 9.75-5.1 7.6 0 13.25 3.8" fill="#59492d" transform="translate(18.4 9.15)"/><path d="M17.2 3.25q2.25 2.95.85 6.15-1.1 2.65-4.4 2.75l-.85-3.1L14.3.4l2.9 2.85" fill="#1c1308" transform="translate(18.4 9.15)"/><path d="m-8.85-2.5-.75 6.4-4.05 8.25q-5.35-.7-4.65-5.25.65-4.45 5.1-7.35 2.25-1.45 4.35-2.05m25.9.55Q17.8.4 17.6.55L14.65 3.5 9.45-.1 8.7-4.75l.75-3.7Q10.6-9.6 11.7-8.8q3.05 2.3 4.3 4.15l1.05 2.7" fill="#382610" transform="translate(18.4 9.15)"/><path d="M6.75-8.95q2.3 1.2 4.6 7.85L9.3 3.45.05.05l-7.85 3.3L-11.05.4l1.7-2.95q1.9-3.1 3-3.9 1.1-.75 3.4-.95l2.7-.1L2.7-8.7l4.05-.25" fill="#382610" transform="translate(18.4 9.15)"/><path d="M2.5-7.8q2.1-.9 3.6-.65.95.15 2.85 4 1.7 3.5 2.8 7Q6.75.2.05.85l-11.7 1.3 5.3-7.35Q-4.9-6.85-.4-6.85q.6 0 2.9-.95" fill="#ebca75" transform="translate(18.4 9.15)"/><path d="M-5.4-4q-1.25 1.7-1.4 5.05l-2.35-1.9 1.25-2.1q1.4-2.2 2.25-2.75 1.35-.9 3.1-1-1.6 1-2.85 2.7" fill="#ffe194" transform="translate(18.4 9.15)"/><path d="M-6.85-3.95q-1.5 2-1.85 3.6l-.45-.6L-7-4.6l1.9-1.6 1.5-.35q-1.75.65-3.25 2.6" fill="#fff" transform="translate(18.4 9.15)"/><path d="m8.15-6.3 1 1.7q.75 1.1.8 1.9.1 2.1-3.1 2.65-1.2.2-2.6-.45l-2.4-1.05-.5-.9 1.7-.45q1.55-.45 2.4-1.4Q7.1-6.15 7-7.8l1.15 1.5" fill="#d9b36c" transform="translate(18.4 9.15)"/><path d="m9.4-3.9.6 2.2q.05.65-.7.95l-1.4.6Q5.7 1.3 4.5.4L3.45-1.7q.7.15 2.9-1.5 1.9-1.75 1.9-2.55.55.3 1.15 1.85" fill="#c4a262" transform="translate(18.4 9.15)"/><path d="M8.65-5.4 9.8-3.95 9.2-.1 7.6-.75 8.65-5.4" fill="#915c2a" transform="translate(18.4 9.15)"/><path d="m15.15-4.25 1.6 4.4-5.7 5.3L9 2.25l-.7-2.3 1.75-7.45 1-.9 4.1 4.15" fill="#ffe6a1" transform="translate(18.4 9.15)"/><path d="M12.5-2.55q.7-.35 1.6 0l1.15.95q.8 1.8-.55 3-.55.5-1.65.35Q11.8 1.6 11.35.6q-1-2.25 1.15-3.15" fill="#7a5f48" transform="translate(18.4 9.15)"/><path d="m12.55-1.9 1.05-.15 1.05.85q.6 1.1-.65 2.15-.95.95-2-.4-.8-1.1.55-2.45" fill="#ffe6a1" transform="translate(18.4 9.15)"/><path d="m14.15-.2-1.4.95L12.3.1l.7-1.5 1.15 1.2" fill="#7a5f48" transform="translate(18.4 9.15)"/><path d="M14.35-5.15 8.9-2.55l.6-2.4 3.4-1.5 1.45 1.3" fill="#fff" transform="translate(18.4 9.15)"/><path d="M17.85 7.6q0 1.7-1.35 2.9-1.25 1.1-2.75 1.15-.1.65-1.7-2.85-.7-1.35-2.5-2.75Q5.9 3.3.2 3.3q-5.65 0-9.3 2.75-1.8 1.4-2.5 2.75-1.4 2.85-1.5 2.25-4.4-.25-4.4-3.45 0-3.3 3.3-6.2Q-9.45-2.75.2-2.75T14.6 1.4q3.25 2.9 3.25 6.2" fill="#baa15d" transform="translate(18.4 9.15)"/><path d="m12.4-6.95.85.8-3.8 1.7.35-1.6 2.6-.9" fill="#ff00c3" transform="translate(18.4 9.15)"/><path d="m9.15-2.75 5.1-2.45.9.95-6 2.75-.5-.2.5-1.05" fill="#0cf" transform="translate(18.4 9.15)"/><path d="m10-7.65 1.05-.75.35.45h-.35l-.5.3L9-1.55l-.45-.15L10-7.65" fill="#fff" transform="translate(18.4 9.15)"/><path d="M3.45-7.6q1.4.2 1 2Q4-3.7 2.15-3.35L.5-3.4q-.95-.55.2-1.3 1.75-1.05 1.85-1.35-.95 0-1.5-.55l2.1-1h.3" fill="#ffe194" transform="translate(18.4 9.15)"/><path d="M-.85-6.15q.05.9-.7 1.8t-1.6.85q-.05-.75.4-1.4l.7-1.05q.4-.45 1.2-.2" fill="#c4a262" transform="translate(18.4 9.15)"/><path d="m4.05-5.35-.95 1q-.6.6-1.4.5-.1-.4.55-.85l.85-.75q.45-.65-.25-.95-1.25-.35-.25-.7.8-.25 1.35.35.5.6.1 1.4" fill="#fff" transform="translate(18.4 9.15)"/><path d="M11.7-1q2.5 1 4.3 3-.2.5-.8 0-3.25-2.85-9.45-4.15L-1.5-2.4l-7.9 1.05-.05-.25 4.15-1.1L2.25-3q4.9.15 9.45 2" fill="#805b3b" transform="translate(18.4 9.15)"/><path d="M13.9 1.05q-7.3-4.3-17.95-2.9-8.1 1.05-11.6 5.25-1.7 2.1-1.85 4-.3-3.5 4.7-7.15 4.85-3.5 16.3-2.8 4.65.2 8.7 2.55l1.7 1.05" fill="#f2e1b3" transform="translate(18.4 9.15)"/><path d="m-10.15-1.05 2-.75L-6.9-2l.25.75-.9.05-2.35.7-.25-.55" fill="#f2f2f2" transform="translate(18.4 9.15)"/><path d="M10.75-.1q2.65.8 4.95 3.2 2.35 2.55 2 5.35-.15.85-1.5 2.1l-1.05 1q-.95.95-1.7.3l-.35-.95-.95-1.7L11 7.75 9.2 5.9l-2-1.1-1.6-.75-1.95-.35-1.35-.35-4 .05-2.35.35 1-.85 1.3-1.15L.05.55Q.1.05 3.15-.5L6.8-.6l3.95.5" fill="#7a623d" transform="translate(18.4 9.15)"/><path d="m-9.6-2.2 3.85-.8q4.3-.55 9.3.05-10.6.3-13.5 1.65L-12.4-.15l2.8-2.05" fill="#382610" transform="translate(18.4 9.15)"/></g></defs></svg>

<?xml version="1.0" encoding="UTF-8" standalone="no"?>
<svg xmlns:xlink="http://www.w3.org/1999/xlink" height="92.9px" width="100.7px" xmlns="http://www.w3.org/2000/svg">
  <g transform="matrix(1.0, 0.0, 0.0, 1.0, 38.65, 49.75)">
    <use height="21.45" transform="matrix(1.0, 0.0, 0.0, 1.0, -18.4, -9.15)" width="37.0" xlink:href="#shape0"/>
  </g>
  <defs>
    <g id="shape0" transform="matrix(1.0, 0.0, 0.0, 1.0, 18.4, 9.15)">
      <path d="M10.6 5.7 Q15.2 8.8 14.95 10.7 14.7 12.25 13.35 12.3 L10.55 8.2 Q8.85 5.85 3.9 4.3 -0.2 3.15 -5.6 4.8 -9.35 5.95 -11.85 10.15 L-13.35 12.1 Q-13.6 9.55 -12.4 7.0 -9.95 1.9 -2.65 1.9 4.95 1.9 10.6 5.7" fill="#59492d" fill-rule="evenodd" stroke="none"/>
      <path d="M17.2 3.25 Q19.45 6.2 18.05 9.4 16.95 12.05 13.65 12.15 L12.8 9.05 14.3 0.4 17.2 3.25" fill="#1c1308" fill-rule="evenodd" stroke="none"/>
      <path d="M-8.85 -2.5 L-9.6 3.9 -13.65 12.15 Q-19.0 11.45 -18.3 6.9 -17.65 2.45 -13.2 -0.45 -10.95 -1.9 -8.85 -2.5" fill="#382610" fill-rule="evenodd" stroke="none"/>
      <path d="M17.05 -1.95 Q17.8 0.4 17.6 0.55 L14.65 3.5 9.45 -0.1 8.7 -4.75 9.45 -8.45 Q10.6 -9.6 11.7 -8.8 14.75 -6.5 16.0 -4.65 L17.05 -1.95" fill="#382610" fill-rule="evenodd" stroke="none"/>
      <path d="M6.75 -8.95 Q9.05 -7.75 11.35 -1.1 L9.3 3.45 0.05 0.05 -7.8 3.35 -11.05 0.4 -9.35 -2.55 Q-7.45 -5.65 -6.35 -6.45 -5.25 -7.2 -2.95 -7.4 L-0.25 -7.5 2.7 -8.7 6.75 -8.95" fill="#382610" fill-rule="evenodd" stroke="none"/>
      <path d="M2.5 -7.8 Q4.6 -8.7 6.1 -8.45 7.05 -8.3 8.95 -4.45 10.65 -0.95 11.75 2.55 6.75 0.2 0.05 0.85 L-11.65 2.15 -6.35 -5.2 Q-4.9 -6.85 -0.4 -6.85 0.2 -6.85 2.5 -7.8" fill="#ebca75" fill-rule="evenodd" stroke="none"/>
      <path d="M-5.4 -4.0 Q-6.65 -2.3 -6.8 1.05 L-9.15 -0.85 -7.9 -2.95 Q-6.5 -5.15 -5.65 -5.7 -4.3 -6.6 -2.55 -6.7 -4.15 -5.7 -5.4 -4.0" fill="#ffe194" fill-rule="evenodd" stroke="none"/>
      <path d="M-6.85 -3.95 Q-8.35 -1.95 -8.7 -0.35 L-9.15 -0.95 -7.0 -4.6 -5.1 -6.2 -3.6 -6.55 Q-5.35 -5.9 -6.85 -3.95" fill="#ffffff" fill-rule="evenodd" stroke="none"/>
      <path d="M8.15 -6.3 L9.15 -4.6 Q9.9 -3.5 9.95 -2.7 10.05 -0.6 6.85 -0.05 5.65 0.15 4.25 -0.5 L1.85 -1.55 1.35 -2.45 3.05 -2.9 Q4.6 -3.35 5.45 -4.3 7.1 -6.15 7.0 -7.8 L8.15 -6.3" fill="#d9b36c" fill-rule="evenodd" stroke="none"/>
      <path d="M9.4 -3.9 L10.0 -1.7 Q10.05 -1.05 9.3 -0.75 L7.9 -0.15 Q5.7 1.3 4.5 0.4 L3.45 -1.7 Q4.15 -1.55 6.35 -3.2 8.25 -4.95 8.25 -5.75 8.8 -5.45 9.4 -3.9" fill="#c4a262" fill-rule="evenodd" stroke="none"/>
      <path d="M8.65 -5.4 L9.8 -3.95 9.2 -0.1 7.6 -0.75 8.65 -5.4" fill="#915c2a" fill-rule="evenodd" stroke="none"/>
      <path d="M15.15 -4.25 L16.75 0.15 11.05 5.45 9.0 2.25 8.3 -0.05 10.05 -7.5 11.05 -8.4 15.15 -4.25" fill="#ffe6a1" fill-rule="evenodd" stroke="none"/>
      <path d="M12.5 -2.55 Q13.2 -2.9 14.1 -2.55 L15.25 -1.6 Q16.05 0.2 14.7 1.4 14.15 1.9 13.05 1.75 11.8 1.6 11.35 0.6 10.35 -1.65 12.5 -2.55" fill="#7a5f48" fill-rule="evenodd" stroke="none"/>
      <path d="M12.55 -1.9 L13.6 -2.05 14.65 -1.2 Q15.25 -0.1 14.0 0.95 13.05 1.9 12.0 0.55 11.2 -0.55 12.55 -1.9" fill="#ffe6a1" fill-rule="evenodd" stroke="none"/>
      <path d="M14.15 -0.2 L12.75 0.75 12.3 0.1 13.0 -1.4 14.15 -0.2" fill="#7a5f48" fill-rule="evenodd" stroke="none"/>
      <path d="M14.35 -5.15 L8.9 -2.55 9.5 -4.95 12.9 -6.45 14.35 -5.15" fill="#ffffff" fill-rule="evenodd" stroke="none"/>
      <path d="M17.85 7.6 Q17.85 9.3 16.5 10.5 15.25 11.6 13.75 11.65 13.65 12.3 12.05 8.8 11.35 7.45 9.55 6.05 5.9 3.3 0.2 3.3 -5.45 3.3 -9.1 6.05 -10.9 7.45 -11.6 8.8 -13.0 11.65 -13.1 11.05 -17.5 10.8 -17.5 7.6 -17.5 4.3 -14.2 1.4 -9.45 -2.75 0.2 -2.75 9.85 -2.75 14.6 1.4 17.85 4.3 17.85 7.6" fill="#baa15d" fill-rule="evenodd" stroke="none"/>
      <path d="M12.4 -6.95 L13.25 -6.15 9.45 -4.45 9.8 -6.05 12.4 -6.95" fill="#ff00c3" fill-rule="evenodd" stroke="none"/>
      <path d="M9.15 -2.75 L14.25 -5.2 15.15 -4.25 9.15 -1.5 8.65 -1.7 9.15 -2.75" fill="#00ccff" fill-rule="evenodd" stroke="none"/>
      <path d="M10.0 -7.65 L11.05 -8.4 11.4 -7.95 11.05 -7.95 10.55 -7.65 9.0 -1.55 8.55 -1.7 10.0 -7.65" fill="#ffffff" fill-rule="evenodd" stroke="none"/>
      <path d="M3.45 -7.6 Q4.85 -7.4 4.45 -5.6 4.0 -3.7 2.15 -3.35 L0.5 -3.4 Q-0.45 -3.95 0.7 -4.7 2.45 -5.75 2.55 -6.05 1.6 -6.05 1.05 -6.6 L3.15 -7.6 3.45 -7.6" fill="#ffe194" fill-rule="evenodd" stroke="none"/>
      <path d="M-0.85 -6.15 Q-0.8 -5.25 -1.55 -4.35 -2.3 -3.45 -3.15 -3.5 -3.2 -4.25 -2.75 -4.9 L-2.05 -5.95 Q-1.65 -6.4 -0.85 -6.15" fill="#c4a262" fill-rule="evenodd" stroke="none"/>
      <path d="M4.05 -5.35 L3.1 -4.35 Q2.5 -3.75 1.7 -3.85 1.6 -4.25 2.25 -4.7 L3.1 -5.45 Q3.55 -6.1 2.85 -6.4 1.6 -6.75 2.6 -7.1 3.4 -7.35 3.95 -6.75 4.45 -6.15 4.05 -5.35" fill="#ffffff" fill-rule="evenodd" stroke="none"/>
      <path d="M11.7 -1.0 Q14.2 0.0 16.0 2.0 15.8 2.5 15.2 2.0 11.95 -0.85 5.75 -2.15 L-1.5 -2.4 -9.4 -1.35 -9.45 -1.6 -5.3 -2.7 2.25 -3.0 Q7.15 -2.85 11.7 -1.0" fill="#805b3b" fill-rule="evenodd" stroke="none"/>
      <path d="M13.9 1.05 Q6.6 -3.25 -4.05 -1.85 -12.15 -0.8 -15.65 3.4 -17.35 5.5 -17.5 7.4 -17.8 3.9 -12.8 0.25 -7.95 -3.25 3.5 -2.55 8.15 -2.35 12.2 0.0 L13.9 1.05" fill="#f2e1b3" fill-rule="evenodd" stroke="none"/>
      <path d="M-10.15 -1.05 L-8.15 -1.8 -6.9 -2.0 -6.65 -1.25 -7.55 -1.2 -9.9 -0.5 -10.15 -1.05" fill="#f2f2f2" fill-rule="evenodd" stroke="none"/>
      <path d="M10.75 -0.1 Q13.4 0.7 15.7 3.1 18.05 5.65 17.7 8.45 17.55 9.3 16.2 10.55 L15.15 11.55 Q14.2 12.5 13.45 11.85 L13.1 10.9 12.15 9.2 11.0 7.75 9.2 5.9 7.2 4.8 5.6 4.05 3.65 3.7 2.3 3.35 -1.7 3.4 -4.05 3.75 -3.05 2.9 -1.75 1.75 0.05 0.55 Q0.1 0.05 3.15 -0.5 L6.8 -0.6 10.75 -0.1" fill="#7a623d" fill-rule="evenodd" stroke="none"/>
      <path d="M-9.6 -2.2 L-5.75 -3.0 Q-1.45 -3.55 3.55 -2.95 -7.05 -2.65 -9.95 -1.3 L-12.4 -0.15 -9.6 -2.2" fill="#382610" fill-rule="evenodd" stroke="none"/>
    </g>
  </defs>
</svg>
